X:4 
T:Variation no. 4 
C:J.S.Bach 
M:3/8 
L:1/8 
Q:170 
V:3 bass 
V:4 bass 
K:G 
[V:1] zBG|dAd|g3-|gfz|z3|z3|zAc-|c/A/Bz|zeg|^c a2| 
[V:2] z3|zDF|B,Gc|B/G/Az|z3|zCE|A,D2-|DGz|z3|z3| 
[V:3] z3|z3|zB,G,|D2z|zG,B,|E,A,G,-|G,F,/E,/F,|G,D,z|z3|zDF| 
[V:4] G,3|F,3|E,3|zD,F,|B,,3|C,3|D,3|zB,,D,|G,,G,2-|G,F,2| 
% 
[V:1] dg2-|gfe-|ed=c-|cB2|Ad^c-|1 ^cdz :|2 ^cdz|:zfd|gb2| 
[V:2] z^ce|A2G-|GFA|DEG|^CAG-|1 G/E/Fz :|2 G/E/Fz|:z3|zdB| 
[V:3] B,Ez|z^CE|A,3-|A,G,B,|E,F,E,|1 D,2z :|2 D,2z|:z3|zDG| 
[V:4] F,E,G,|^C,A,^C|F,3|G,G,,2-|G,,F,,A,,|1 D,,3/2D,/E,/F,/ :|2 D,,3/2A,/B,/^C/|:D2=C|B,2G,| 
% 
[V:1] ba/g/f/e/|^d/e/f2-|feg|^c^de-|e^d/^c/B/A/|PG/F/Ez|z=ce| 
[V:2] GAc|F2z|zBG|EFG|F3|E2z|zAc| 
[V:3] EC2-|CB,/A,/G,/F,/|G,/A,/B,2-|B,A,B,|CB,2-|B,G,B,|E,A,/G,/F,/G,/| 
[V:4] CF,A,|B,^D,B,,|E,G,E,|A,F,E,|A,B,B,,|E,2=D,|C,3| 
% 
[V:1] ABd|Gc2-|cdc|B/c/d2-|d/c/d/c/B/A/|dGF-|1 FGz :|2 FGz|| 
[V:2] FGB|EA2-|AFA-|AGB|E3|A,DC-|1 C/A,/B,z :|2 C/A,/B,z|| 
[V:3] D3|CF,A,|D,3-|D,2G,-|G,A,C|F,G,A,|1 G,2z :|2 G,2z|| 
[V:4] C,B,,2-|B,,A,,C,|F,,D,,F,,|G,,B,,G,,|C,3-|C,B,,D,|1 G,,3/2A,/B,/^C/ :|2 G,,2z||
